ic16/ic16__package.svg

<svg fill="none" height="16" width="16" xmlns="http://www.w3.org/2000/svg"><path clip-rule="evenodd" d="m12.76 4.386-4.761-2.749-4.76 2.748 4.761 2.749zm-10.27 1.298v5.496l4.76 2.748v-5.495zm6.26 8.243 4.758-2.747v-5.494l-4.758 2.747zm-1.501-13.589a1.5 1.5 0 0 1 1.5 0l5.51 3.18a1.5 1.5 0 0 1 .75 1.3v6.362a1.5 1.5 0 0 1 -.75 1.299l-5.51 3.18a1.5 1.5 0 0 1 -1.5 0l-5.51-3.18a1.5 1.5 0 0 1 -.75-1.3v-6.36a1.5 1.5 0 0 1 .75-1.3l5.511-3.18z" fill-rule="evenodd"/></svg>

<svg width="16" height="16" viewBox="0 0 16 16" fill="none" xmlns="http://www.w3.org/2000/svg">
  <path fill-rule="evenodd" clip-rule="evenodd" d="M12.76 4.386L7.999 1.637l-4.76 2.748L8 7.134l4.76-2.748zM2.49 5.684v5.496l4.76 2.748V8.433L2.49 5.684zm6.26 8.243l4.758-2.747V5.686L8.75 8.433v5.494zM7.249.338a1.5 1.5 0 011.5 0l5.51 3.18a1.5 1.5 0 01.75 1.3v6.362a1.5 1.5 0 01-.75 1.299l-5.51 3.18a1.5 1.5 0 01-1.5 0l-5.51-3.18a1.5 1.5 0 01-.75-1.3v-6.36a1.5 1.5 0 01.75-1.3L7.25.339 7.249.338z" />
</svg>
